X:100
T: Chrysanthemums Were Blooming
O:russia
R: waltz
M: 3/4
L: 1/4
K: Am
"Intro"[|]EE \
| "Am"[c3A3]- | [cA]FD | "Dm"B3- | BBA \
| "E7"^GFE | DCB, | "Am"A,3- | A, ||
|: E^D \
"A"|"Am"[FD]>[EC][EC]- | [EC]EA | "Dm"E>DD- | D^CD \
| "E7"F>EE- | EEB, | "Am"F>EE- | E^DE |
| "A7"A>^G=G- | G_B,A, | "Dm"G>EF- | FEF \
| "Am"EEE | "B7"^DB,A, | "E"E3- | E :|
|: EE \
"B"| "Am"[c3A3]- | [cA]FD | "Dm"B3- | BDE \
| "E7"^G2G- | G^F^G | "Am"A3- | AAA |
| "F"A3- | ABA | "Dm"c2B- | BDE \
| "E7"^G3- | G^F^G | "Am"A3- | "fine"A :| [K:F]
"C7"AG \
"C1"| "F"G2F- | FE>F | "Gm"c2B- | BB^F \
| "C7"A2G- | G^F>G | "F"c3- | "C7"cde |
| "F"[f2A2][eG] | "D7"[d2^F2][AF] | "Gm"[c2A2][BG]- | [BG][BG][fd] \
| "C7"[e2c2][A^F] | [B2G2][eB] | "F"[d2A2][cA]- | "C7"cAG |
"C2"| "F"G2F- | FE>F | "Gm"c2B- | BB^F \
| "C7"A2G- | G^F>G | "F"c3 | "Dm"def |
| "G7"[a2f2][fd] | "E7"[d=B][c^G][=BG] | "F"d2c | "Dm"f"A"g"D7"a \
| "Gm7"b3 | "C7"a2a | "F"f3- | "d.C."f |]
